svgs/sharp-light/floppy-disks.svg

<svg xmlns="http://www.w3.org/2000/svg" viewBox="0 0 512 512"><!--! Font Awesome Pro 6.6.0 by @fontawesome - https://fontawesome.com License - https://fontawesome.com/license (Commercial License) Copyright 2024 Fonticons, Inc. --><path d="M96 416l32 0 352 0 32 0 0-32 0-272L400 0 192 0 160 0 128 0 96 0l0 32 0 352 0 32zM160 32l0 96 0 16 16 0 192 0 16 0 0-16 0-96 2.7 0L480 125.3 480 384l-352 0 0-352 32 0zm192 0l0 80-160 0 0-80 160 0zM32 112l0-16L0 96l0 16L0 496l0 16 16 0 384 0 16 0 0-32-16 0L32 480l0-368zM296 224a40 40 0 1 1 0 80 40 40 0 1 1 0-80zm0 112a72 72 0 1 0 0-144 72 72 0 1 0 0 144z"/></svg>

<svg xmlns="http://www.w3.org/2000/svg" viewBox="0 0 512 512"><!--! Font Awesome Pro 6.4.2 by @fontawesome - https://fontawesome.com License - https://fontawesome.com/license (Commercial License) Copyright 2023 Fonticons, Inc. --><path d="M96 416h32H480h32V384 112L400 0H192 160 128 96V32 384v32zM160 32v96 16h16H368h16V128 32h2.7L480 125.3V384H128V32h32zm192 0v80H192V32H352zM32 112V96H0v16V496v16H16 400h16V480H400 32V112zM296 224a40 40 0 1 1 0 80 40 40 0 1 1 0-80zm0 112a72 72 0 1 0 0-144 72 72 0 1 0 0 144z"/></svg>
